X:1
T:Lady Forbe's Reel
R:reel
B:Ryan's Mammoth Collection
Z: Contributed by Ray Davies,  ray:davies99.freeserve.co.uk
M:C|
L:1/8
K:D
vDFAd BAGF|Eeed cAA2|DFAd BAGF|GBAG FDD2|
DFAd BAGF|Eeed cAA2|DFAd BAGF|GBAG FDD2||
dAdA dfed|cAeA fAeA|dAdA dfed|cdef d2d2|
dAdA dfed|cdef gfed|dBAG FAdB|AGFE D2D2||
